X: 6387
T: Castle Kelly
R: reel
M: 4/4
K: Bminor
|:B2 dB BcdB|AdFA A2 FA|B2 dB ABde|fdec dB B2:|
bafd egfe|dBAF A3 a|bafd e2de|fbba b2 c'b|
afed egfe|dBAF|A2 FA|B2 dB ABde|fdec dB B2||

